src/icons/2x4.svg

<svg xmlns="http://www.w3.org/2000/svg" width="512" height="512" viewBox="0 0 512 512">
    <path d="M356.3 263.1H416v146.4h-59.7V263.1zm-86.7 0h59.7v146.4h-59.7V263.1zm-86.8 0h59.7v146.4h-59.7V263.1zm-86.8 0h59.7v146.4H96V263.1zM356.3 89.5H416v146.4h-59.7V89.5zm-86.7 0h59.7v146.4h-59.7V89.5zm-86.8 0h59.7v146.4h-59.7V89.5zm-86.8 0h59.7v146.4H96V89.5z"/>
</svg>

<?xml version="1.0" encoding="UTF-8"?>
<svg width="512px" height="512px" viewBox="0 0 512 512" version="1.1" xmlns="http://www.w3.org/2000/svg" xmlns:xlink="http://www.w3.org/1999/xlink">
    <!-- Generator: Sketch 62 (91390) - https://sketch.com -->
    <title>2x4</title>
    <desc>Created with Sketch.</desc>
    <g id="2x4" stroke="none" stroke-width="1" fill="none" fill-rule="evenodd">
        <path d="M356.3,263.1 L416,263.1 L416,409.5 L356.3,409.5 L356.3,263.1 Z M269.6,263.1 L329.3,263.1 L329.3,409.5 L269.6,409.5 L269.6,263.1 Z M182.8,263.1 L242.5,263.1 L242.5,409.5 L182.8,409.5 L182.8,263.1 Z M96,263.1 L155.7,263.1 L155.7,409.5 L96,409.5 L96,263.1 L96,263.1 Z M356.3,89.5 L416,89.5 L416,235.9 L356.3,235.9 L356.3,89.5 Z M269.6,89.5 L329.3,89.5 L329.3,235.9 L269.6,235.9 L269.6,89.5 Z M182.8,89.5 L242.5,89.5 L242.5,235.9 L182.8,235.9 L182.8,89.5 Z M96,89.5 L155.7,89.5 L155.7,235.9 L96,235.9 L96,89.5 Z" id="Shape" fill="#000000" fill-rule="nonzero"></path>
    </g>
</svg>
